!!!OTL: Von Wegen der Leute.
!!!OTL-incipit:UNTER MEINES VATERS SEINEM FENSTER
!!!COM: Volksweise
!!!ARE: Europa, Mitteleuropa, Deutschland, Schlesien
!!!SCT: F0200
!!!TXL: @@DE
!!!YEM: Copyright 1995, estate of Helmut Schaffrath.
**kern	**text
*ICvox	*
*clefG2	*
*M3/4	*
*k[f#c#g#d#]	*
*E:	*
!LO:TX:a:t=Mäßig.	!
{8.g#	1._Un-
16a	-ter
=1	=1
8b/	meines
8g#	.
8b/	Vaters
8g#	.
8b/	ſei-
8g#	-nem
=2	=2
8b/L	Fen-
8eeJ	.
4g#}	-ſter,
{8.cc#/	ach!
16b/	da
=3	=3
8b/	gehn
8a	die
8a	Mädel
8a	.
8f#	wie
8a	Ge-
=4	=4
8.cc#/L	-ſpen-
16bJ	.
4b/}	-ſter.
{8.g#	2._und
16a	in
=5	=5
8b/	meines
8g#	.
8b/	Vaters
8g#	.
8b/	ſei-
8g#	-nem
=6	=6
8b/L	Gar-
8eeJ	.
4g#}	-ten,
{8.cc#/	acht
16b/	da
=7	=7
8b/	thun
8g#	die
8b/	Mädel
8g#	.
8b/	auf
8g#	mich
=8	=8
8.cc#/L	2._war-
16bJ	.
8b/}	-ten.
{8.e	Ach,
8g#	wenn
8a	die
=9	=9
8b/	Leut'
8a	nicht
8a	wären,
8a	.
8f#	könnt'ſt
8a	mein
=10	=10
8cc#/	Schätʒel
8b/	.
8b/}	wer'n,
{8e	ach,
8g#	wenn
8a	die
=11	=11
8b/	Leut'
8a	nicht
8a	wären,
8a	könnt'ſt
8f#	.
8a	mein
=12	=12
8cc#/	Schätʒel
8b/	.
8b/	wer'en,
8b/}	.
{8.g#^	bis
16a	wir
=13	=13
8b/	wie-
8g#	-der
8b/	grünen
8g#	.
8b/	Hafer
8g#	.
=14	=14
8b/L	ſchneiden.
8eeJ	.
4g#}	.
{8.cc#^	Schatʒ,
16b/	ich
=15	=15
8b/	bin
8a	dir
8a	gut,
8f#	ich
8d#	kann
8f#	dich
=16	=16
4f#	lei-
4e}	-den.
==	==
!!!AGN: Scherz - Lied
!!!ONB: ESAC (Essen Associative Code) Database: FINK
!!!AMT: simple triple
!!!AIN: vox
!!!EED: Helmut Schaffrath
!!!EEV: 1.0
!!!GTL:Volkslieder
!!Text: Volkslied
!!@@COMMENT:"*) Aus 7 vollsthümlichen Vergmannsliedern. Leipʒig, bei Fr. Hofmeiſter. Mit beſonderer Erlaubniß 
!!des Herrn Verlegers.
!!**) Nur wenig verſchieden auch in der 2. Lieferung der Schleſiſchen Volkslieder von Hoffmann v. Fallersleben. Leipʒig, bei Breitkopfund Härtel."
!!@@END:
!!!source: Musikalischer Hausschatz der Deutschen. Eine Sammlung von über 1000 Liedern und Gesängen mit Singstimmen und Klavierbegleitung. Leipzig, Litterarisches Verlags-Haus.
!!!page: 117
!!!URL-scan: https://www.digitale-sammlungen.de/en/view/bsb11144622?page=124,125
!!!ENC: Anna Maria Matuszewska
!!!EEV: 2024/07/26
*-	*-